X:1
T:For All We Know
C:Fred Coots
L:1/4
M:C
I:linebreak $
K:Eb
"Eb" E2"Cm" z B, |"F7b5" G2"F7" z F/E/ |"Fm" D/E/F/G/"Bb7" F2 |"Fm" z2"E7" z B, |$"Eb" G2"Fm" z E |
"Gø" B2"Gb7" z A/G/ |"Fm" F/G/A/B/"FmM" A2 |"Fm" z2"F#o" =A2Ox///||$"Gm" B2 B B |"Gbo" d2 c2 |
"Fm" B2"Fm/Eb" A B |"Dm" G2"Db7" F B, |$"Cm" E2"CmM" E E |"Cm" C2"Co" D E |"Fm" A C E G |
"Bb4" F3"_D.C. al Coda" B, ||$Ox/"Gm" B2"Cm" B B |"Am" d2"D7" z c |"G7" (3=B c d"G7b5" G G |
"C4" G2 z G |$"Fm" (3A B c"F7b5" F F |"Bb4" F F"Bb7" E D |"Eb6" E4 | z4 |]

